X:6
T:La roza enflores
C:Chant judéo-espagnol
Z:Transcrit et/ou corrigé par B@D - 2006-10-18
Z:Pour toute observation mailto:-@-
M:
%%continueall 0
L:1/8
K:C
G2 | c3d (_ed) ce | (dc) (B^G) !breath!=G2 G2 | c3d !1!_e2 ee&x4 !2!_ed ce | !breath!d6 d_e | 
f_e df (ed) ce | (dc) (B^G) !breath!=G2 G2 | B2 ^G=G ^FG ^GB | (G^G) Bc !breath!d2 d_e | 
f_e df (ed) ce | (dc) (B^G) =G2 G2 | B2 ^G=G ^FG ^GB | G6 :|
%%begintext
Gal ut grave en intérieur, ut aigu en extérieur
%%endtext


%%header "$P0	 $IR 	$P1"
%%footer $D - Éditions Galouvielle - 2009 - À usage librement privé dans le cadre familial

